X:440
T: Storks Have Landed [The]
R: reel
S: "Ace and Deuce" (C.McCarthy, A.McCormack, E.O Donoghue)
Z: B.Black
M: 4/4
L: 1/8
K: C
CD|EGGG AGEG|c2 Bc AGEC|DA,A,A, DEFG|AdcA GEDF|
EGGG AGEG|c2 Bc AGEe|fedc AGAB|cAGF EC :|
zc|ecgc acgc|ecgc afdf|ecgc acgc|afff cfaf|
ecgc acgc|afff cfaf|fedc AGAB|cAGF EC :|
